!!!COM: Robert Schumann
!!!CNT: Deutscher
!!!TXO: Deutsche 
!!!OTL: Ho2r' ich das Liedchen klingen
!!!OPR: Dichterliebe
!!!OPS: Opus 48
!!!ONM: No. 10
!!!LYR: Heine
!!!ENC: Brian Bice
!!!YOR: Sa2mtliche Lieder, vol. 1, C.F. Peters
!!!ODT: 1840/
!!NB: Vocal melody and text only encoded.
**kern	**silbe
*clefG2	*
*k[b-e-]	*
*M2/4	*
=5	=5
{8b-	{Ho2r'
16b-	ich
16b-	das
8a	Lied-
8a	-chen
=6	=6
8g	klin-
8g}	-gen,}
8r	.
{8a	{das
=7	=7
8.d	einst
16d	die
8f#	Lieb-
8f#	-ste
=8	=8
8g}	sang,}
8r	.
8r	.
{8g	{so
=9	=9
8g	will
16g	mir
16g	die
8.bn	Brust
16bn	zer-
=10	=10
8cc	-sprin-
8cc}	-gen}
8r	.
{8dd-	{von
=11	=11
8.g	wil-
16g	-dem
8.bn	Schmer-
16bn	-zer-
=12	=12
4cc}	-drang.}
8r	.
{8cc	{Es
=13	=13
8cc	treibt
16f	mich
16f	ein
8.f	dunk-
16f	-les
=14	=14
8f	Seh-
8b-}	-nen}
8r	.
{8b-	{hin-
=15	=15
8.b-	-auf
16e-	zur
8e-	Wal-
8e-	-des-
=16	=16
(8e-	-ho2h',
8a)}	|}
8r	.
{8a	{dort
=17	=17
8.a	lo2st
16a	sich
(32a	auf
32b-	|
8cc)	|
16b-	in
=18	=18
8a	Tra2-
8g}	-nen}
8r	.
{8g	{mein
=19	=19
8.b-	u2-
16b-	-ber-
8.a	-gro-
16a	-sses
=20	=20
4g}	Weh'.}
4r	.
*-	*-
